X:1
T:Ccà nun ce chiove
T:Ccà nun ce chiove
T:Canzone Piedigrotta 91
T:Musica di C. Capocelli
T:Versi di S. Massa
T:Cierte ccose pe quante secrete nun se ponno tenè sempe chiuse ncopp' 'o munno nce stanno 'e curiuse fabb' 'a spia e po' vanno a parlà. Puri' oi ne' te credevo nnucente me penzava ca fosse buscia quanno nxieme cu chillo p' 'a via t'aggio visto propr' i' cammenà Nun nce che dicere nun nce che ffà mo chest' 'è ebbreca d' 'e nnuvità Si po te seccano sti ccose nove Nannì ricuordete ...cca nun nce chiove
T:Siente siè chest' 'o dice o pruverbio "una vota ta fa lu francese" ncuollì a tico aggio fatto li spese era chisto 'o destino pe me. Int' 'a recchia mme sente na voce Fance vute nun fa cchiù l'ammore scurdatello ca tiene lu core chesta voce mo voglio sentì Mo puà spassarete e comme no tu si cchù libera bella figlio' Si po te seccano sti ccose nove Nannì ricuordete ...cca nun nce chiove
T:by IMSLP381345-PMLP616073 Pubblico Dominio
T:by IMSLP381345-PMLP616073 Pubblico Dominio
T:by IMSLP381345-PMLP616073 Pubblico Dominio
T:by IMSLP381345-PMLP616073 Pubblico Dominio
C:Musica di C. Capocelli
Z:Versi di S. Massa
Z:by IMSLP381345-PMLP616073 Pubblico Dominio
%%score 1 { ( 2 4 ) | 3 }
L:1/8
Q:1/4=108
M:3/4
K:G
V:1 treble nm="Voice"
V:2 treble nm="Piano"
V:4 treble 
V:3 bass 
V:1
"^Allegretto" z6 | z6 | z6 | z6 | z6 | z6 | z6 | z6 | z2 D2 D2 | G2 G3 A | B2 B3 F | G2 !>!G4- | %12
w: ||||||||Sto sen\-|ten\- no'a nu|tiem\- po na|vo\- ce|
 G2 D2 D2 | G2 G3 A | B2 B3 F | G2 !>!G4- | G2 B2 B2 | B2 B2 B2 | ^c2 c2 c2 | d4 B2- | B2 B2 B2 | %21
w: _ ca te|spas\- se cu|mmi\- co e cu|n'a\- to|_ chist' è|pro\- prio nu|fat\- to aggraz\-|zia\- to|_ comm' a|
 A2 A2 A2 | A2 G3 ^C | D6- | D2 D2 D2 | G2 G3 A | B2 B2 F2 | G2 G4- | G2 D2 D2 | G2 G3 A | %30
w: sce\- mo me|fa rum\- ma\-|ne|_ Ma che|cri\- de ca i'|son\- go nu|san\- to|_ ras\- si\-|gnat' a pur\-|
 B2 B3 F | G2 G4- | G2 B2 B2 | B2 B2 B2 | ^c2 c2 c2 | d4 B2- | B2 B2 B2 | A2 A2 A2 | A2 B3 c | %39
w: tà che\- sta|cro\- ce|_ no de|san\- to nun|ten\- go la|vo\- ce|_ che sto|cca' l'a\- var\-|ris\- se sa\-|
"^portando la voce" !fermata!d6 | B2 e2 B2 | A3 G G2 | G2 F2 E2 | F6 | c2 e2 c2 | B3 A A2 | %46
w: pe'|Nun nce che|di\- ce\- re|sti nnu\- vi\-|tà|uom\- me\- ne e|fem\- me\- ne|
 c2 B2 A2 | B6 | B2 d2 B2 | A3 G G2 | G2 G2 G2 | G2 c4 | c2 d2 e2 | d3 d d2 | %54
w: fan\- no ncan\-|tà|Si pò te|sec\- ca\- no|sti cco\- se|no\- ve|Nan\- nì ri\-|cuor\- de\- te|
"^rall."[Q:1/4=78] d2 d2 d2 |1,2{dc} B6 :|3 B2 z2 z2 |] %57
w: cca nun nce|chiove.|chiove.|
V:2
!p! b2 d'2 b2 |{ab} a3 g g2 | g2{ag} f2 e2 | f6 | c'2 e'2 c'2 |!<(!{bc'} b2 !>![Aa]2 !>![Bb]2!<)! | %6
!>(! !>![dd']2 !>![cc']2 !>![Aa]2!>)! | !>![Gg]2 z2 z2 |!pp! z2 D2 D2 | G2 G3 A | B2 B3 F | %11
 G2!<(! !>!G4- | G2!<)!!p! D2 D2 | G2 G3 A | B2 B3 F | G2 !>!G4- | G2!<(! B2 B2 | %17
 B2 B2!mf! B2!<)! | ^c2 c2 c2 | d4 B2- | B2!p! B2 B2 | A2 A2 A2 | A2 G3 ^C | D6- | %24
 D2!<(! D2 D2!<)! |!p! G2!>(! G3 A!>)! | B2 B2 F2 | G2 G4- | G2!<(! D2 D2 | G2 G3 A | B2 B3 F | %31
 G2 G4- | G2 B2 B2!<)! |!mf! B2 B2 B2 | ^c2 c2 c2 | d4 B2- | B2 B2 B2 | A2 A2 A2 | A2 B3 c | %39
 !fermata![FAd]6 |!pp! B2 e2 B2 | A3 G G2 | G2 F2 E2 | F6 |"_cresc." c2 e2 c2 | B3 A A2 | %46
 c2 B2 A2 | B6 |!f! B2 d2 B2 | A3 G G2 | G2 G2 G2 | G2 c4 | c2 d2 e2 | d3 d d2 | %54
"^rall."!ff! d2 d2 d2 |1,2{dc} B6 :|3 B2 [gbd'g']2 !fermata!z2 |] %57
V:3
 z6 | [G,,G,]2 [D,G,B,]2 [D,G,B,]2 | [D,,D,]2 [D,G,B,]2 [D,G,B,]2 | [A,,A,]2 [F,CD]2 [F,CD]2 | %4
 [E,,D,]2 [F,CD]2 [F,CD]2 | [A,,A,]2 [F,CD]2 [F,CD]2 | !>![D,,D,]2 !>![E,,E,]2 !>![F,,F,]2 | %7
 !>![G,,G,]2 [D,G,B,]2 [D,G,B,]2 | [D,,D,]2 [D,G,B,]2 [D,G,B,]2 | [G,,G,]2 [D,G,B,]2 [D,G,B,]2 | %10
 [D,,D,]2 [D,G,B,]2 [D,G,B,]2 | [G,,G,]2 [D,G,B,]2 [D,G,B,]2 | [D,,D,]2 [D,G,B,]2 [D,G,B,]2 | %13
 [G,,G,]2 [D,G,B,]2 [D,G,B,]2 | [D,,D,]2 [D,G,B,]2 [D,G,B,]2 | [G,,G,]2 [D,G,B,]2 [D,G,B,]2 | %16
 [G,,G,]2 [D,G,B,]2 [D,G,B,]2 | [B,,,B,,]2 [D,B,D]2 [D,B,D]2 | [F,,F,]2 [F,A,^C]2 [F,A,C]2 | %19
 [B,,B,]2 [F,B,D]2 [F,B,D]2 | [F,B,D]2 z2 z2 | [A,,,A,,]2 [E,G,A,^C]2 [E,G,A,C]2 | %22
 [A,,A,]2 [E,G,A,^C]2 [A,,,A,,]2 | [D,,D,]2 [D,F,A,]2 [D,F,A,]2 | %24
 [C,,C,]2 [C,D,F,A,]2 [C,D,F,A,]2 | [B,,,B,,]2 [D,G,B,]2 [D,G,B,]2 | [D,,D,]2 [D,F,C]2 [D,F,C]2 | %27
 [G,,G,]2 [D,G,B,]2 [D,G,B,]2 | [D,,D,]2 [D,G,B,]2 [D,G,B,]2 | [G,,G,]2 [D,G,B,]2 [D,G,B,]2 | %30
 [D,,D,]2 [D,G,B,]2 [D,G,B,]2 | [G,,G,]2 [D,G,B,]2 [D,G,B,]2 | [G,,G,]2 [D,G,B,]2 [D,G,B,]2 | %33
 [B,,,B,,]2 [F,B,D]2 [F,B,D]2 | [F,,F,]2 [F,A,^C]2 [F,A,C]2 | [B,,B,]2 [F,B,D]2 [F,B,D]2 | %36
 [F,B,D]2 z2 z2 | [A,,,A,,]2 [E,G,A,^C]2 [E,G,A,C]2 | [A,,,A,,]2 [E,G,A,^C]2 [E,G,A,C]2 | %39
 !fermata![D,,D,]6 | z6 | [G,,G,]2 [D,G,B,]2 [D,G,B,]2 | [D,,D,]2 [D,G,B,]2 [D,G,B,]2 | %43
 [A,,A,]2 [D,F,C]2 [D,F,C]2 | [D,,D,]2 [D,F,C]2 [D,F,C]2 | [D,,D,]2 [D,F,C]2 [D,F,C]2 | %46
 [D,,D,]2 [D,F,C]2 [D,F,C]2 | [G,,G,]2 [D,G,B,]2 [D,G,B,]2 | D,2 [D,G,B,]2 [D,G,B,]2 | %49
 [G,,G,]2 [D,G,B,]2 [D,G,B,]2 | [G,,G,]2 [D,G,B,]2 [D,G,B,]2 | [C,,C,]2 [E,G,C]2 [E,G,C]2 | %52
 [C,,C,]2 [E,G,C]2 [E,G,C]2 | [D,,D,]2 [D,G,B,]2 [D,G,B,]2 | [D,,D,]2 [B,,D,C]2 [B,,D,C]2 |1,2 %55
 [G,,G,]2 [D,G,B,]2 z2 :|3 [G,,G,]2 [G,,,G,,]2 !fermata!z2 |] %57
V:4
 x6 | x6 | x6 | x6 | x6 | x6 | x6 | x6 | x6 | x6 | x6 | x6 | x6 | x6 | x6 | x6 | x6 | x6 | x6 | %19
 x6 | x6 | x6 | x6 | x6 | x6 | x6 | x6 | x6 | x6 | x6 | x6 | x6 | x6 | x6 | x6 | x6 | x6 | x6 | %38
 G4 x2 | x6 | x6 | x6 | x6 | x6 | x6 | x6 | x6 | x6 | x6 | x6 | x6 | x6 | x6 | x6 | x6 |1,2 x6 :|3 %56
 x6 |] %57

